;FLAVOR:UltiGCode
;TIME:1985
;MATERIAL:1680
;MATERIAL2:0
;NOZZLE_DIAMETER:0.4
;MINX:94.282
;MINY:87.912
;MINZ:0.27
;MAXX:128.718
;MAXY:130.041
;MAXZ:22.87
;TARGET_MACHINE.NAME:Ultimaker 2+
;Generated with Cura_SteamEngine 5.6.0
M82 ;absolute extrusion mode
G0 F3000 Y50 ;avoid prime blob
G92 E0
G92 E0
G10
;LAYER_COUNT:228
;LAYER:0
M107
G0 F7200 X102.207 Y91.408 Z0.27
;TYPE:SKIRT
G11
G1 F1800 X104.774 Y88.915 E0.38646
G1 X107.846 Y87.912 E0.73547
G1 X115.448 Y87.913 E1.55649
G1 X118.066 Y88.803 E1.85512
G1 X118.382 Y89.003 E1.89551
G1 X120.875 Y91.57 E2.28197
G1 X121.878 Y94.642 E2.63099
G1 X121.878 Y109.909 E4.27982
G1 X122.351 Y109.93 E4.33096
G1 X124.906 Y110.799 E4.62242
G1 X125.222 Y110.999 E4.66281
G1 X127.715 Y113.566 E5.04927
G1 X128.718 Y116.638 E5.39828
G1 X128.718 Y123.219 E6.10903
G1 X128.298 Y125.147 E6.32214
G1 X127.188 Y126.967 E6.55237
G1 X125.041 Y129.05 E6.87544
G1 X121.987 Y130.04 E7.22217
G1 X101.105 Y130.041 E9.47743
G1 X99.175 Y129.621 E9.69075
G1 X97.355 Y128.511 E9.92098
G1 X95.273 Y126.365 E10.2439
G1 X94.282 Y123.308 E10.59097
G1 X94.282 Y116.339 E11.34362
G1 X95.172 Y113.721 E11.64226
G1 X95.372 Y113.405 E11.68264
G1 X97.939 Y110.912 E12.06911
G1 X100.889 Y109.949 E12.40425
G1 X101.117 Y109.924 E12.42902
G1 X101.117 Y94.342 E14.11188
G1 X102.007 Y91.724 E14.41052
G1 X102.207 Y91.408 E14.4509
G0 F7200 X102.486 Y91.695
G1 F1800 X104.987 Y89.266 E14.82744
G1 X107.909 Y88.312 E15.15941
G1 X115.381 Y88.313 E15.96638
G1 X117.937 Y89.182 E16.25795
G1 X118.095 Y89.282 E16.27814
G1 X120.524 Y91.783 E16.65467
G1 X121.478 Y94.705 E16.98664
G1 X121.478 Y110.308 E18.67177
G1 X122.222 Y110.309 E18.75212
G1 X124.777 Y111.178 E19.04358
G1 X124.935 Y111.278 E19.06378
G1 X127.364 Y113.779 E19.44031
G1 X128.318 Y116.701 E19.77228
G1 X128.318 Y123.175 E20.47147
G1 X127.921 Y124.998 E20.67297
G1 X126.875 Y126.713 E20.88992
G1 X124.829 Y128.698 E21.1978
G1 X121.923 Y129.64 E21.52772
G1 X101.149 Y129.641 E23.77131
G1 X99.324 Y129.244 E23.97302
G1 X97.609 Y128.198 E24.18997
G1 X95.625 Y126.153 E24.49769
G1 X94.682 Y123.244 E24.82796
G1 X94.682 Y116.406 E25.56647
G1 X95.551 Y113.85 E25.85803
G1 X95.651 Y113.692 E25.87823
G1 X98.152 Y111.263 E26.25476
G1 X101.013 Y110.329 E26.57979
G1 X101.517 Y110.309 E26.63427
G1 X101.517 Y94.409 E28.35147
G1 X102.386 Y91.853 E28.64304
G1 X102.486 Y91.695 E28.66323
G0 F7200 X102.765 Y91.982
G1 F1800 X105.2 Y89.617 E29.02983
G1 X107.972 Y88.712 E29.34476
G1 X115.314 Y88.713 E30.1377
G1 X117.808 Y89.561 E30.42219
G1 X120.173 Y91.996 E30.7888
G1 X121.078 Y94.768 E31.10372
G1 X121.078 Y110.708 E32.82524
G1 X122.154 Y110.709 E32.94145
G1 X124.648 Y111.557 E33.22595
G1 X127.013 Y113.992 E33.59255
G1 X127.918 Y116.764 E33.90748
G1 X127.918 Y123.131 E34.59511
G1 X127.544 Y124.849 E34.785
G1 X126.562 Y126.459 E34.98867
G1 X124.617 Y128.346 E35.28135
G1 X121.859 Y129.24 E35.59447
G1 X101.193 Y129.241 E37.8264
G1 X99.473 Y128.867 E38.0165
G1 X97.863 Y127.885 E38.22017
G1 X95.977 Y125.941 E38.51269
G1 X95.082 Y123.18 E38.82616
G1 X95.082 Y116.473 E39.55051
G1 X95.93 Y113.979 E39.83501
G1 X98.365 Y111.614 E40.20161
G1 X101.137 Y110.709 E40.51654
G1 X101.917 Y110.709 E40.60078
G1 X101.917 Y94.476 E42.35394
G1 X102.765 Y91.982 E42.63844
G0 F7200 X103.113 Y92.202
G1 F1800 X105.413 Y89.968 E42.98473
G1 X108.035 Y89.112 E43.28261
G1 X115.247 Y89.113 E44.06151
G1 X117.588 Y89.909 E44.32855
G1 X119.822 Y92.209 E44.67484
G1 X120.678 Y94.831 E44.97272
G1 X120.678 Y111.108 E46.73064
G1 X122.087 Y111.109 E46.88281
G1 X124.428 Y111.905 E47.14985
G1 X126.662 Y114.205 E47.49614
G1 X127.518 Y116.827 E47.79403
G1 X127.518 Y123.087 E48.47011
G1 X127.167 Y124.7 E48.64839
G1 X126.249 Y126.205 E48.83878
G1 X124.405 Y127.994 E49.11625
G1 X121.795 Y128.84 E49.41257
G1 X101.237 Y128.841 E51.63283
G1 X99.622 Y128.49 E51.81133
G1 X98.117 Y127.572 E52.00172
G1 X96.329 Y125.729 E52.27904
G1 X95.482 Y123.116 E52.5757
G1 X95.482 Y116.54 E53.28591
G1 X96.278 Y114.199 E53.55295
G1 X98.578 Y111.965 E53.89924
G1 X101.2 Y111.109 E54.19712
G1 X102.317 Y111.109 E54.31776
G1 X102.317 Y94.543 E56.10689
G1 X103.113 Y92.202 E56.37393
G0 F7200 X103.461 Y92.422
G1 F1800 X105.626 Y90.319 E56.6999
G1 X108.098 Y89.512 E56.98074
G1 X115.18 Y89.513 E57.7456
G1 X117.368 Y90.257 E57.99519
G1 X119.471 Y92.422 E58.32116
G1 X120.278 Y94.894 E58.60201
G1 X120.278 Y111.508 E60.39632
G1 X122.02 Y111.509 E60.58445
G1 X124.208 Y112.253 E60.83405
G1 X126.311 Y114.418 E61.16002
G1 X127.118 Y116.89 E61.44086
G1 X127.118 Y123.043 E62.10538
G1 X126.79 Y124.551 E62.27205
G1 X125.936 Y125.951 E62.44917
G1 X124.193 Y127.642 E62.71144
G1 X121.731 Y128.44 E62.99096
G1 X101.281 Y128.441 E65.19956
G1 X99.771 Y128.113 E65.36644
G1 X98.371 Y127.259 E65.54355
G1 X96.681 Y125.517 E65.80567
G1 X95.882 Y123.052 E66.08553
G1 X95.882 Y116.607 E66.78159
G1 X96.626 Y114.419 E67.03118
G1 X98.791 Y112.316 E67.35715
G1 X101.263 Y111.509 E67.63799
G1 X102.717 Y111.509 E67.79503
G1 X102.717 Y94.61 E69.62012
G1 X103.461 Y92.422 E69.86971
G0 F7200 X103.809 Y92.642
G1 F1800 X105.839 Y90.67 E70.17536
G1 X108.161 Y89.912 E70.43916
G1 X115.113 Y89.913 E71.18998
G1 X117.148 Y90.605 E71.42212
G1 X119.12 Y92.635 E71.72777
G1 X119.878 Y94.957 E71.99157
G1 X119.878 Y111.908 E73.82228
G1 X121.953 Y111.909 E74.04638
G1 X123.988 Y112.601 E74.27852
G1 X125.96 Y114.631 E74.58418
G1 X126.718 Y116.953 E74.84798
G1 X126.718 Y122.999 E75.50094
G1 X126.413 Y124.402 E75.65601
G1 X125.623 Y125.697 E75.81984
G1 X123.981 Y127.29 E76.06692
G1 X121.667 Y128.04 E76.32963
G1 X101.325 Y128.041 E78.52656
G1 X99.92 Y127.736 E78.68184
G1 X98.625 Y126.946 E78.84567
G1 X97.033 Y125.305 E79.09259
G1 X96.282 Y122.988 E79.35564
G1 X96.282 Y116.674 E80.03756
G1 X96.974 Y114.639 E80.26969
G1 X99.004 Y112.667 E80.57535
G1 X101.326 Y111.909 E80.83915
G1 X103.117 Y111.909 E81.03258
G1 X103.117 Y94.677 E82.89363
G1 X103.809 Y92.642 E83.12577
G0 F7200 X104.157 Y92.862
G1 F1800 X106.052 Y91.021 E83.41111
G1 X108.224 Y90.312 E83.65787
G1 X115.046 Y90.313 E84.39465
G1 X116.928 Y90.953 E84.60933
G1 X118.769 Y92.848 E84.89467
G1 X119.478 Y95.02 E85.14143
G1 X119.478 Y112.308 E87.00853
G1 X121.886 Y112.309 E87.2686
G1 X123.768 Y112.949 E87.48328
G1 X125.609 Y114.844 E87.76862
G1 X126.318 Y117.016 E88.01538
G1 X126.318 Y122.955 E88.65679
G1 X126.036 Y124.253 E88.80025
G1 X125.31 Y125.443 E88.9508
G1 X123.769 Y126.938 E89.18267
G1 X121.603 Y127.64 E89.42858
G1 X101.369 Y127.641 E91.61385
G1 X100.069 Y127.359 E91.75752
G1 X98.879 Y126.633 E91.90807
G1 X97.385 Y125.093 E92.13979
G1 X96.682 Y122.924 E92.38604
G1 X96.682 Y116.741 E93.05381
G1 X97.322 Y114.859 E93.26849
G1 X99.217 Y113.018 E93.55383
G1 X101.389 Y112.309 E93.80059
G1 X103.517 Y112.309 E94.03041
G1 X103.517 Y94.744 E95.92743
G1 X104.157 Y92.862 E96.14212
G0 F7200 X104.505 Y93.082
G1 F1800 X106.265 Y91.372 E96.40714
G1 X108.287 Y90.712 E96.63686
G1 X114.979 Y90.713 E97.3596
G1 X116.708 Y91.301 E97.55683
G1 X118.418 Y93.061 E97.82185
G1 X119.078 Y95.083 E98.05157
G1 X119.078 Y112.708 E99.95507
G1 X121.819 Y112.709 E100.2511
G1 X123.548 Y113.297 E100.44833
G1 X125.258 Y115.057 E100.71335
G1 X125.918 Y117.079 E100.94307
G1 X125.918 Y122.911 E101.57292
G1 X125.659 Y124.104 E101.70477
G1 X124.997 Y125.189 E101.84204
G1 X123.556 Y126.587 E102.05887
G1 X121.542 Y127.24 E102.28753
G1 X101.412 Y127.241 E104.46157
G1 X100.218 Y126.982 E104.59352
G1 X99.133 Y126.32 E104.73079
G1 X97.737 Y124.881 E104.94732
G1 X97.082 Y122.86 E105.17676
G1 X97.082 Y116.808 E105.83038
G1 X97.67 Y115.079 E106.02761
G1 X99.43 Y113.369 E106.29264
G1 X101.452 Y112.709 E106.52235
G1 X103.917 Y112.709 E106.78857
G1 X103.917 Y94.811 E108.72156
G1 X104.505 Y93.082 E108.91879
G0 F7200 X104.853 Y93.302
G1 F1800 X106.478 Y91.723 E109.1635
G1 X108.35 Y91.112 E109.37617
G1 X114.912 Y91.113 E110.08487
G1 X116.488 Y91.649 E110.26465
G1 X118.067 Y93.274 E110.50935
G1 X118.678 Y95.146 E110.72203
G1 X118.678 Y113.108 E112.66192
G1 X121.752 Y113.109 E112.99392
G1 X123.328 Y113.645 E113.1737
G1 X124.907 Y115.27 E113.4184
G1 X125.518 Y117.142 E113.63108
G1 X125.518 Y122.867 E114.24938
G1 X125.282 Y123.955 E114.36961
G1 X124.684 Y124.935 E114.4936
G1 X123.344 Y126.235 E114.69524
G1 X121.478 Y126.84 E114.90709
G1 X101.455 Y126.841 E117.06958
G1 X100.367 Y126.605 E117.18981
G1 X99.387 Y126.007 E117.3138
G1 X98.089 Y124.669 E117.51513
G1 X97.482 Y122.796 E117.72777
G1 X97.482 Y116.875 E118.36724
G1 X98.018 Y115.299 E118.54702
G1 X99.643 Y113.72 E118.79173
G1 X101.515 Y113.109 E119.0044
G1 X104.317 Y113.109 E119.30702
G1 X104.317 Y94.878 E121.27596
G1 X104.853 Y93.302 E121.45575
G0 F7200 X105.201 Y93.522
G1 F1800 X106.691 Y92.074 E121.68014
G1 X108.413 Y91.512 E121.87577
G1 X114.845 Y91.513 E122.57042
G1 X116.268 Y91.997 E122.73275
G1 X117.716 Y93.487 E122.95714
G1 X118.278 Y95.209 E123.15277
G1 X118.278 Y113.508 E125.12907
G1 X121.685 Y113.509 E125.49702
G1 X123.108 Y113.993 E125.65935
G1 X124.556 Y115.483 E125.88374
G1 X125.118 Y117.205 E126.07937
G1 X125.118 Y122.823 E126.68612
G1 X124.905 Y123.804 E126.79453
G1 X124.369 Y124.683 E126.90572
G1 X123.132 Y125.883 E127.09185
G1 X121.414 Y126.44 E127.2869
G1 X101.499 Y126.441 E129.43772
G1 X100.518 Y126.228 E129.54614
G1 X99.639 Y125.692 E129.65733
G1 X98.44 Y124.456 E129.84331
G1 X97.882 Y122.735 E130.0387
G1 X97.882 Y116.942 E130.66434
G1 X98.366 Y115.519 E130.82668
G1 X99.856 Y114.071 E131.05107
G1 X101.578 Y113.509 E131.2467
G1 X104.717 Y113.509 E131.58571
G1 X104.717 Y94.945 E133.59062
G1 X105.201 Y93.522 E133.75295
G0 F7200 X105.549 Y93.742
G1 F1800 X106.904 Y92.425 E133.95702
G1 X108.476 Y91.912 E134.13561
G1 X114.778 Y91.913 E134.81623
G1 X116.048 Y92.345 E134.96111
G1 X117.365 Y93.7 E135.16518
G1 X117.878 Y95.272 E135.34377
G1 X117.878 Y113.908 E137.35646
G1 X121.618 Y113.909 E137.76038
G1 X122.888 Y114.341 E137.90525
G1 X124.205 Y115.696 E138.10933
G1 X124.718 Y117.268 E138.28792
G1 X124.718 Y122.779 E138.8831
G1 X124.528 Y123.653 E138.9797
G1 X124.054 Y124.431 E139.07809
G1 X122.919 Y125.532 E139.24887
G1 X121.353 Y126.04 E139.42667
G1 X101.543 Y126.041 E141.56615
G1 X100.669 Y125.851 E141.66275
G1 X99.891 Y125.377 E141.76114
G1 X98.791 Y124.243 E141.93177
G1 X98.282 Y122.674 E142.10991
G1 X98.282 Y117.009 E142.72173
G1 X98.714 Y115.739 E142.86661
G1 X100.069 Y114.422 E143.07068
G1 X101.641 Y113.909 E143.24927
G1 X105.117 Y113.909 E143.62468
G1 X105.117 Y95.012 E145.66556
G1 X105.549 Y93.742 E145.81043
G0 F7200 X105.897 Y93.962
G1 F1800 X107.117 Y92.776 E145.99419
G1 X108.539 Y92.312 E146.15574
G1 X114.711 Y92.313 E146.82231
G1 X115.828 Y92.693 E146.94974
G1 X117.014 Y93.913 E147.1335
G1 X117.478 Y95.335 E147.29504
G1 X117.478 Y114.308 E149.34413
G1 X121.551 Y114.309 E149.78401
G1 X122.668 Y114.689 E149.91144
G1 X123.854 Y115.909 E150.09519
G1 X124.318 Y117.331 E150.25674
G1 X124.318 Y122.735 E150.84037
G1 X124.151 Y123.502 E150.92515
G1 X123.737 Y124.182 E151.01113
G1 X122.707 Y125.181 E151.1661
G1 X121.292 Y125.64 E151.32676
G1 X101.587 Y125.641 E153.4549
G1 X100.82 Y125.474 E153.53967
G1 X100.14 Y125.06 E153.62565
G1 X99.142 Y124.031 E153.78047
G1 X98.682 Y122.613 E153.94147
G1 X98.682 Y117.076 E154.53946
G1 X99.062 Y115.959 E154.66689
G1 X100.282 Y114.773 E154.85065
G1 X101.704 Y114.309 E155.01219
G1 X105.517 Y114.309 E155.424
G1 X105.517 Y95.079 E157.50084
G1 X105.897 Y93.962 E157.62826
G0 F7200 X106.245 Y94.182
G1 F1800 X107.33 Y93.127 E157.79171
G1 X108.602 Y92.712 E157.93621
G1 X114.644 Y92.713 E158.58874
G1 X115.608 Y93.041 E158.69872
G1 X116.663 Y94.126 E158.86216
G1 X117.078 Y95.398 E159.00666
G1 X117.078 Y114.708 E161.09214
G1 X121.484 Y114.709 E161.56799
G1 X122.448 Y115.037 E161.67797
G1 X123.503 Y116.122 E161.84141
G1 X123.918 Y117.394 E161.98591
G1 X123.918 Y122.691 E162.55799
G1 X123.774 Y123.351 E162.63094
G1 X123.42 Y123.933 E162.70451
G1 X122.495 Y124.83 E162.84367
G1 X121.231 Y125.24 E162.98719
G1 X101.631 Y125.241 E165.10399
G1 X100.971 Y125.097 E165.17694
G1 X100.389 Y124.743 E165.25051
G1 X99.493 Y123.819 E165.38952
G1 X99.082 Y122.552 E165.53337
G1 X99.082 Y117.143 E166.11754
G1 X99.41 Y116.179 E166.22752
G1 X100.495 Y115.124 E166.39096
G1 X101.767 Y114.709 E166.53546
G1 X105.917 Y114.709 E166.98366
G1 X105.917 Y95.146 E169.09647
G1 X106.245 Y94.182 E169.20644
G0 F7200 X106.593 Y94.402
G1 F1800 X107.543 Y93.478 E169.34957
G1 X108.665 Y93.112 E169.47703
G1 X114.577 Y93.113 E170.11552
G1 X115.388 Y93.389 E170.20804
G1 X116.312 Y94.339 E170.35117
G1 X116.678 Y95.461 E170.47863
G1 X116.678 Y115.108 E172.60051
G1 X121.417 Y115.109 E173.11232
G1 X122.228 Y115.385 E173.20484
G1 X123.152 Y116.335 E173.34797
G1 X123.518 Y117.457 E173.47543
G1 X123.518 Y122.647 E174.03595
G1 X123.397 Y123.2 E174.09708
G1 X123.103 Y123.684 E174.15824
G1 X122.284 Y124.478 E174.28144
G1 X121.169 Y124.84 E174.40805
G1 X101.675 Y124.841 E176.5134
G1 X101.122 Y124.72 E176.57454
G1 X100.638 Y124.426 E176.6357
G1 X99.844 Y123.607 E176.75889
G1 X99.482 Y122.491 E176.8856
G1 X99.482 Y117.21 E177.45595
G1 X99.758 Y116.399 E177.54847
G1 X100.708 Y115.475 E177.6916
G1 X101.83 Y115.109 E177.81906
G1 X106.317 Y115.109 E178.30365
G1 X106.317 Y95.213 E180.45242
G1 X106.593 Y94.402 E180.54494
G0 F7200 X106.941 Y94.622
G1 F1800 X107.756 Y93.829 E180.66775
G1 X108.728 Y93.512 E180.77817
G1 X114.51 Y93.513 E181.40263
G1 X115.168 Y93.737 E181.4777
G1 X115.961 Y94.552 E181.60051
G1 X116.278 Y95.524 E181.71093
G1 X116.278 Y115.508 E183.8692
G1 X121.35 Y115.509 E184.41697
G1 X122.008 Y115.733 E184.49204
G1 X122.801 Y116.548 E184.61485
G1 X123.118 Y117.52 E184.72527
G1 X123.118 Y122.647 E185.27899
G1 X123.008 Y123.107 E185.33007
G1 X122.825 Y123.397 E185.3671
G1 X122.073 Y124.126 E185.48022
G1 X121.107 Y124.44 E185.58992
G1 X101.675 Y124.441 E187.68857
G1 X101.215 Y124.331 E187.73965
G1 X100.925 Y124.148 E187.77669
G1 X100.196 Y123.396 E187.8898
G1 X99.882 Y122.429 E187.99961
G1 X99.882 Y117.277 E188.55602
G1 X100.106 Y116.619 E188.63109
G1 X100.921 Y115.826 E188.7539
G1 X101.893 Y115.509 E188.86432
G1 X106.717 Y115.509 E189.38531
G1 X106.717 Y95.28 E191.57004
G1 X106.941 Y94.622 E191.64511
G0 F7200 X107.289 Y94.842
G1 F1800 X107.969 Y94.18 E191.74761
G1 X108.791 Y93.912 E191.84098
G1 X114.443 Y93.913 E192.4514
G1 X114.948 Y94.085 E192.50901
G1 X115.61 Y94.765 E192.61151
G1 X115.878 Y95.587 E192.70488
G1 X115.878 Y115.908 E194.89955
G1 X121.283 Y115.909 E195.48329
G1 X121.788 Y116.081 E195.54091
G1 X122.45 Y116.761 E195.6434
G1 X122.718 Y117.583 E195.73678
G1 X122.718 Y122.607 E196.27937
G1 X122.659 Y122.911 E196.31281
G1 X122.547 Y123.11 E196.33748
G1 X121.862 Y123.774 E196.44051
G1 X121.044 Y124.04 E196.53341
G1 X101.715 Y124.041 E198.62094
G1 X101.411 Y123.982 E198.65438
G1 X101.212 Y123.87 E198.67905
G1 X100.548 Y123.185 E198.78208
G1 X100.282 Y122.367 E198.87498
G1 X100.282 Y117.344 E199.41746
G1 X100.454 Y116.839 E199.47508
G1 X101.134 Y116.177 E199.57757
G1 X101.956 Y115.909 E199.67095
G1 X107.117 Y115.909 E200.22833
G1 X107.117 Y95.347 E202.44903
G1 X107.289 Y94.842 E202.50665
G0 F7200 X107.568 Y95.129
G1 F1800 X108.182 Y94.531 E202.59921
G1 X108.854 Y94.312 E202.67554
G1 X114.443 Y94.313 E203.27916
G1 X114.661 Y94.364 E203.30334
G1 X115.259 Y94.978 E203.3959
G1 X115.478 Y95.65 E203.47223
G1 X115.478 Y116.308 E205.7033
G1 X121.283 Y116.309 E206.33024
G1 X121.501 Y116.36 E206.35442
G1 X122.099 Y116.974 E206.44698
G1 X122.318 Y117.646 E206.52332
G1 X122.318 Y122.607 E207.0591
G1 X122.269 Y122.823 E207.08303
G1 X121.651 Y123.422 E207.17598
G1 X120.981 Y123.64 E207.25207
G1 X101.715 Y123.641 E209.3328
G1 X101.499 Y123.592 E209.35672
G1 X100.9 Y122.974 E209.44967
G1 X100.682 Y122.304 E209.52576
G1 X100.682 Y117.344 E210.06144
G1 X100.733 Y117.126 E210.08562
G1 X101.347 Y116.528 E210.17819
G1 X102.019 Y116.309 E210.25452
G1 X107.517 Y116.309 E210.84831
G1 X107.517 Y95.347 E213.1122
G1 X107.568 Y95.129 E213.13638
G0 F7200 X107.917 Y95.347
G1 F1800 X108.395 Y94.882 E213.2084
G1 X108.917 Y94.712 E213.26769
G1 X114.443 Y94.713 E213.8645
G1 X114.908 Y95.191 E213.93652
G1 X115.078 Y95.713 E213.99581
G1 X115.078 Y116.708 E216.26327
G1 X121.283 Y116.709 E216.93341
